X: 147
T:Missa Ad fugam / Agnus Dei (version II)
N: Derived from Jos1201e.b-Missa_Ad_fugam-Agnus-version_II.krn
C: Josquin des Prez
%%abc-version 2.0
%%abcx-abcm2ps-target-version 5.9.1 (29 Sep 2008)
%%abc-creator hum2abc beta
%%abcx-conversion-date 2019/02/12 16:15:45
%%abc-edited-by Jesse Rodin
%%abc-edited-by Jesse Rodin; Victoria Chang 2012/02/11
%%abcx-initial-encoding-date 2012/02/11/
%%humdrum-veritas 1450444372
%%humdrum-veritas-data 3615106297
%%linebreak <none>
%%barnumbers 0
L: 1/4
M: 3/1
Q: 1/2=120
%%staves [1 2 3 4]
V: 1 clef=treble
V: 2 clef=treble-8
V: 3 clef=treble-8
V: 4 clef=bass
K: F
[V:1] G8G4 | 
[V:2] G6A2B3c | 
[V:3] z12 | 
[V:4] G,8E,4 | 
[V:1] A2A4GFE4 | 
[V:2] A8z2A2 | 
[V:3] c8c4 | 
[V:4] F,6G,2A,4 | 
[V:1] D4z4A4 | 
[V:2] B3AF2G2D4 | 
[V:3] d2d4cBA4 | 
[V:4] z2D,4G,4^F,2 | 
[V:1] B4c2d3cBA | 
[V:2] d2g2f2d4g2- | 
[V:3] G4z4d4 | 
[V:4] G,4A,2B,2G,4 | 
[V:1] G4A2B2G4 | 
[V:2] gfedc2d2e2c2- | 
[V:3] e4f2g3fed | 
[V:4] C3B,A,2G,2C3B, | 
[V:1] z2A2F2G2E4 | 
[V:2] c2A4B2c2A2- | 
[V:3] c4d2e2c4 | 
[V:4] A,G,F,4E,2A,4 | 
[V:1] D4z4A4 | 
[V:2] A2B2G2g4^f2 | 
[V:3] z2d2B2c2A4 | 
[V:4] D,2G,4C,2D,4 | 
[V:1] B4c2d3cBA | 
[V:2] g3fe2d2g3f | 
[V:3] G4z4d4 | 
[V:4] z2G,2A,2B,2G,4 | 
[V:1] G4z4G4 | 
[V:2] edc4d2e2c2- | 
[V:3] e4f2g3fed | 
[V:4] C3B,A,2G,2C3B, | 
[V:1] A4G2F2E4 | 
[V:2] c2A2B2d2c2A2- | 
[V:3] c4z4c4 | 
[V:4] A,G,F,2G,2D,2A,4 | 
[V:1] D2A3GG4^F2 | 
[V:2] A2f3ed3cA2 | 
[V:3] d4c2B2A4 | 
[V:4] D,3E,F,2G,2D,4 | 
[V:1] G12 ||  
[V:2] G12 ||  
[V:3] G12 ||  
[V:4] G,12 ||  
[V:1]  [K:F] [K:clef=treble][M:2/1]A4B4 | 
[V:2]  [K:F] [K:clef=treble-8][M:2/1]d6e2 | 
[V:3]  [K:F] [K:clef=treble-8][M:2/1]z8 | 
[V:4]  [K:F] [K:clef=bass][M:2/1]z8 | 
[V:1] A4d4- | 
[V:2] f4d4 | 
[V:3] z8 | 
[V:4] z8 | 
[V:1] d2cBcBAG | 
[V:2] e8 | 
[V:3] z8 | 
[V:4] z8 | 
[V:1] F4G4 | 
[V:2] d4c3B | 
[V:3] d4e4 | 
[V:4] z8 | 
[V:1] B8 | 
[V:2] G8 | 
[V:3] d4g4- | 
[V:4] z8 | 
[V:1] A8 | 
[V:2] d8 | 
[V:3] g2fefedc | 
[V:4] z8 | 
[V:1] z8 | 
[V:2] G4A4 | 
[V:3] B4c4 | 
[V:4] z8 | 
[V:1] z8 | 
[V:2] G4c4- | 
[V:3] _e8 | 
[V:4] z8 | 
[V:1] z8 | 
[V:2] c4B4 | 
[V:3] d8 | 
[V:4] z4G,4 | 
[V:1] z8 | 
[V:2] c4_e4 | 
[V:3] z8 | 
[V:4] A,4C4 | 
[V:1] z4G4 | 
[V:2] d8 | 
[V:3] z8 | 
[V:4] B,6A,G, | 
[V:1] A4c4 | 
[V:2] z4c4 | 
[V:3] z8 | 
[V:4] F,8 | 
[V:1] B2A4G2- | 
[V:2] d3ef2e2 | 
[V:3] z8 | 
[V:4] z8 | 
[V:1] G2F2E4 | 
[V:2] c2d2A4 | 
[V:3] z4c4 | 
[V:4] z8 | 
[V:1] D8 | 
[V:2] D8 | 
[V:3] d4f4 | 
[V:4] z4D4 | 
[V:1] z8 | 
[V:2] z8 | 
[V:3] e2d4c2- | 
[V:4] C2D2B,2A,2- | 
[V:1] z8 | 
[V:2] z8 | 
[V:3] c2B2A4 | 
[V:4] A,2G,4^F,2 | 
[V:1] z4d4 | 
[V:2] B4G4 | 
[V:3] G8 | 
[V:4] G,8 | 
[V:1] c2A2B4 | 
[V:2] A4G4 | 
[V:3] z8 | 
[V:4] z4G,4 | 
[V:1] A4G4 | 
[V:2] z4G4 | 
[V:3] z8 | 
[V:4] F,2D,2E,4 | 
[V:1] F2D2E4 | 
[V:2] A2B2c4 | 
[V:3] z4g4 | 
[V:4] D,4z2C,2 | 
[V:1] D4z2G2 | 
[V:2] z4c4 | 
[V:3] f2d2e4 | 
[V:4] D,2B,,2C,4 | 
[V:1] F2B4A2- | 
[V:2] A2B2c2A2 | 
[V:3] d4c4 | 
[V:4] D,2B,,2F,4 | 
[V:1] A2G4^F2 | 
[V:2] B2c2d4 | 
[V:3] B2G2A4 | 
[V:4] G,2E,2D,4 | 
[V:1] G8 |]  
[V:2] d8 |]  
[V:3] G8 |]  
[V:4] G,8 |]  



